src/images/profile.svg

<svg width="20" height="22" viewBox="0 0 20 22" fill="none" xmlns="http://www.w3.org/2000/svg">
<g filter="url(#filter0_d_19177_847)">
<path fill-rule="evenodd" clip-rule="evenodd" d="M12 4C12 5.10457 11.1046 6 10 6C8.89543 6 8 5.10457 8 4C8 2.89543 8.89543 2 10 2C11.1046 2 12 2.89543 12 4ZM14 4C14 6.20914 12.2091 8 10 8C7.79086 8 6 6.20914 6 4C6 1.79086 7.79086 0 10 0C12.2091 0 14 1.79086 14 4ZM8 9C5.79086 9 4 10.7909 4 13V14H6V13C6 11.8954 6.89543 11 8 11H12C13.1046 11 14 11.8954 14 13V14H16V13C16 10.7909 14.2091 9 12 9H8Z" fill="black"/>
<path d="M10 6.5C11.3807 6.5 12.5 5.38071 12.5 4C12.5 2.61929 11.3807 1.5 10 1.5C8.61929 1.5 7.5 2.61929 7.5 4C7.5 5.38071 8.61929 6.5 10 6.5ZM13.5 4C13.5 5.933 11.933 7.5 10 7.5C8.067 7.5 6.5 5.933 6.5 4C6.5 2.067 8.067 0.5 10 0.5C11.933 0.5 13.5 2.067 13.5 4ZM4.5 13C4.5 11.067 6.067 9.5 8 9.5H12C13.933 9.5 15.5 11.067 15.5 13V13.5H14.5V13C14.5 11.6193 13.3807 10.5 12 10.5H8C6.61929 10.5 5.5 11.6193 5.5 13V13.5H4.5V13Z" stroke="black"/>
<path d="M10 6.5C11.3807 6.5 12.5 5.38071 12.5 4C12.5 2.61929 11.3807 1.5 10 1.5C8.61929 1.5 7.5 2.61929 7.5 4C7.5 5.38071 8.61929 6.5 10 6.5ZM13.5 4C13.5 5.933 11.933 7.5 10 7.5C8.067 7.5 6.5 5.933 6.5 4C6.5 2.067 8.067 0.5 10 0.5C11.933 0.5 13.5 2.067 13.5 4ZM4.5 13C4.5 11.067 6.067 9.5 8 9.5H12C13.933 9.5 15.5 11.067 15.5 13V13.5H14.5V13C14.5 11.6193 13.3807 10.5 12 10.5H8C6.61929 10.5 5.5 11.6193 5.5 13V13.5H4.5V13Z" stroke="black" stroke-opacity="0.2"/>
</g>
<defs>
<filter id="filter0_d_19177_847" x="0" y="0" width="20" height="22" filterUnits="userSpaceOnUse" color-interpolation-filters="sRGB">
<feFlood flood-opacity="0" result="BackgroundImageFix"/>
<feColorMatrix in="SourceAlpha" type="matrix" values="0 0 0 0 0 0 0 0 0 0 0 0 0 0 0 0 0 0 127 0" result="hardAlpha"/>
<feOffset dy="4"/>
<feGaussianBlur stdDeviation="2"/>
<feComposite in2="hardAlpha" operator="out"/>
<feColorMatrix type="matrix" values="0 0 0 0 0 0 0 0 0 0 0 0 0 0 0 0 0 0 0.25 0"/>
<feBlend mode="normal" in2="BackgroundImageFix" result="effect1_dropShadow_19177_847"/>
<feBlend mode="normal" in="SourceGraphic" in2="effect1_dropShadow_19177_847" result="shape"/>
</filter>
</defs>
</svg>

<svg width="20" height="22" fill="none" xmlns="http://www.w3.org/2000/svg"><g filter="url(#a)"><path fill-rule="evenodd" clip-rule="evenodd" d="M12 4a2 2 0 1 1-4 0 2 2 0 0 1 4 0zm2 0a4 4 0 1 1-8 0 4 4 0 0 1 8 0zM8 9a4 4 0 0 0-4 4v1h2v-1a2 2 0 0 1 2-2h4a2 2 0 0 1 2 2v1h2v-1a4 4 0 0 0-4-4H8z" fill="#000"/><path d="M10 6.5a2.5 2.5 0 1 0 0-5 2.5 2.5 0 0 0 0 5zM13.5 4a3.5 3.5 0 1 1-7 0 3.5 3.5 0 0 1 7 0zm-9 9A3.5 3.5 0 0 1 8 9.5h4a3.5 3.5 0 0 1 3.5 3.5v.5h-1V13a2.5 2.5 0 0 0-2.5-2.5H8A2.5 2.5 0 0 0 5.5 13v.5h-1V13z" stroke="#000"/><path d="M10 6.5a2.5 2.5 0 1 0 0-5 2.5 2.5 0 0 0 0 5zM13.5 4a3.5 3.5 0 1 1-7 0 3.5 3.5 0 0 1 7 0zm-9 9A3.5 3.5 0 0 1 8 9.5h4a3.5 3.5 0 0 1 3.5 3.5v.5h-1V13a2.5 2.5 0 0 0-2.5-2.5H8A2.5 2.5 0 0 0 5.5 13v.5h-1V13z" stroke="#000" stroke-opacity=".2"/></g><defs><filter id="a" x="0" y="0" width="20" height="22" filterUnits="userSpaceOnUse" color-interpolation-filters="sRGB"><feFlood flood-opacity="0" result="BackgroundImageFix"/><feColorMatrix in="SourceAlpha" values="0 0 0 0 0 0 0 0 0 0 0 0 0 0 0 0 0 0 127 0" result="hardAlpha"/><feOffset dy="4"/><feGaussianBlur stdDeviation="2"/><feComposite in2="hardAlpha" operator="out"/><feColorMatrix values="0 0 0 0 0 0 0 0 0 0 0 0 0 0 0 0 0 0 0.25 0"/><feBlend in2="BackgroundImageFix" result="effect1_dropShadow_19177_847"/><feBlend in="SourceGraphic" in2="effect1_dropShadow_19177_847" result="shape"/></filter></defs></svg>
